X: 1
T:Lochaber No More  "CYMRU"
M:3/4
L:1/8
Q:80
C:Trad.
S:Funeral March
K:HP
[| | {g}A3/2B/2{GdG}c2{GdG}c2|
{g}c/2e3/2{gcd}c2{g}B2|
{g}c/2e3/2{gfg}f2{g}B2|  !
{GdGe}B3/2{d}c/2{gcd}c2{e}B2| |
{g}A3/2B/2{GdG}c2{g}c/2a3/2|
{ef}e3/2c/2{gBd}B3/2A/2{d}G2|  !
{g}A3/2B/2{GdG}c2{G}A2|
{g}B3/2{d}c/2{G}A4|] [|
| {g}A3/2{d}c/2{gef}e2{A}e2|  !
{g}ef{gfg}f/2e3/2{Gdc}d/2c3/2|
{g}B3/2c/2{G}A2{ag}a2|
{f}g2{ag}a2{g}a2| |  !
{g}A3/2B/2{GdG}c2{g}c/2a3/2|
{ef}e3/2c/2{gBd}B3/2A/2{d}G2|
{g}A3/2B/2{GdG}c2{G}A2|  !
{g}B3/2{d}c/2{G}A4|]
